www/assets/icons/face_2.svg

<svg xmlns="http://www.w3.org/2000/svg" width="24" height="24" viewBox="0 0 24 24" fill='currentColor'><g clip-path="url(#a)"><path d="M21.97 13.52v-.04C23.21 12.38 24 10.78 24 9c0-3.31-2.69-6-6-6q-.39 0-.78.06a5.98 5.98 0 0 0-10.44 0Q6.39 3 6 3C2.69 3 0 5.69 0 9c0 1.78.79 3.38 2.02 4.48v.04A6 6 0 0 0 0 18c0 3.31 2.69 6 6 6 1.39 0 2.67-.48 3.69-1.28.74.18 1.51.28 2.31.28s1.57-.1 2.31-.28c1.02.8 2.3 1.28 3.69 1.28 3.31 0 6-2.69 6-6 0-1.78-.79-3.38-2.03-4.48M12 21c-4.41 0-8-3.59-8-8 0-3.72 2.56-6.85 6-7.74v.05c0 3.34 2.72 6.06 6.06 6.06 1.26 0 2.45-.39 3.45-1.09.31.86.49 1.77.49 2.72 0 4.41-3.59 8-8 8"/><path d="M9 15.25a1.25 1.25 0 1 0 0-2.5 1.25 1.25 0 0 0 0 2.5m6 0a1.25 1.25 0 1 0 0-2.5 1.25 1.25 0 0 0 0 2.5"/></g><defs><clipPath id="a"><path d="M0 0h24v24H0z"/></clipPath></defs></svg>

<svg width="24" height="24" viewBox="0 0 24 24" xmlns="http://www.w3.org/2000/svg" fill='currentColor'><g clip-path="url(#clip0_1616_4363)"><path d="M21.97 13.52C21.97 13.51 21.97 13.5 21.97 13.48C23.21 12.38 24 10.78 24 9C24 5.69 21.31 3 18 3C17.74 3 17.48 3.02 17.22 3.06C16.19 1.23 14.24 0 12 0C9.76 0 7.81 1.23 6.78 3.06C6.52 3.02 6.26 3 6 3C2.69 3 0 5.69 0 9C0 10.78 0.79 12.38 2.02 13.48C2.02 13.49 2.02 13.5 2.02 13.52C0.79 14.62 0 16.22 0 18C0 21.31 2.69 24 6 24C7.39 24 8.67 23.52 9.69 22.72C10.43 22.9 11.2 23 12 23C12.8 23 13.57 22.9 14.31 22.72C15.33 23.52 16.61 24 18 24C21.31 24 24 21.31 24 18C24 16.22 23.21 14.62 21.97 13.52ZM12 21C7.59 21 4 17.41 4 13C4 9.28 6.56 6.15 10 5.26C10 5.28 10 5.29 10 5.31C10 8.65 12.72 11.37 16.06 11.37C17.32 11.37 18.51 10.98 19.51 10.28C19.82 11.14 20 12.05 20 13C20 17.41 16.41 21 12 21Z"/><path d="M9 15.25C9.69036 15.25 10.25 14.6904 10.25 14C10.25 13.3096 9.69036 12.75 9 12.75C8.30964 12.75 7.75 13.3096 7.75 14C7.75 14.6904 8.30964 15.25 9 15.25Z"/><path d="M15 15.25C15.6904 15.25 16.25 14.6904 16.25 14C16.25 13.3096 15.6904 12.75 15 12.75C14.3096 12.75 13.75 13.3096 13.75 14C13.75 14.6904 14.3096 15.25 15 15.25Z"/></g><defs><clipPath id="clip0_1616_4363"><rect width="24" height="24"/></clipPath></defs></svg>
